src/pos-icons/resistor.svg

<svg height="24" viewBox="0 0 24 24" width="24" xmlns="http://www.w3.org/2000/svg"><path d="m2 11h5l3.07 4.35 3.04-11.35 4.89 7h4v2h-5l-3.07-4.35-3.04 11.35-4.89-7h-4z"/></svg>

<?xml version="1.0" encoding="UTF-8"?><!DOCTYPE svg PUBLIC "-//W3C//DTD SVG 1.1//EN" "http://www.w3.org/Graphics/SVG/1.1/DTD/svg11.dtd"><svg xmlns="http://www.w3.org/2000/svg" xmlns:xlink="http://www.w3.org/1999/xlink" version="1.1" id="mdi-resistor" width="24" height="24" viewBox="0 0 24 24"><path d="M2,11H7L10.07,15.35L13.11,4L18,11H22V13H17L13.93,8.65L10.89,20L6,13H2V11Z" /></svg>
